X: 1
T: G\aangl\aat fr\aan Vigelsj\"o av Sten Blomstr\"om
C: Sten Blomstr\"om
O: Vigelsj\"o, Uppland, Sweden
T: G\aangl\aat fr\aan Elitkapell S\"odert\"alje
N: Learned from Bruce Sagan, Buffalo Gap, 1987
N: Learned from Mary Dart, May, 1985, Swannanoa, North Carolina
D: Norrtelje Elitkapells "Med pukor och trumpeter" 1981
N: http://www.svenfredriksson.com/norrtelje_elitkapell/norrtelje_elitkapell.htm
Z: John Chambers <jc@trillian.mit.edu>
M: 2/4
L: 1/16
K: G
|: "G"B2-B2 "D7"A2GF | "G"G2G2 "D7"D4 \
| "G"B2-B2 "D7"AGAc | "G"B2B2 "D7"A4 \
| "G"d2-d2 G2AB | "C"c2c2 "G"B4 |
| "D7"ABAG FDEF |1 "G"G2-G2- G4 \
:|2 "G"G2B2 c2d2 |: "C"e3d cBcd \
| e2g2 f2e2 | "G"d3c BABc |
| "Em"d2f2 e2d2 | "Am"c3B AGFG \
| "D7"A2-A2 D4 |1 "D7"cBA2 cBA2 \
| "G"B2e2 d4 :|2 "D7"AGFG AFED | "G"G2-G2- G4 |]
